X:1
T:A minor Ananias Davisson, 1820
T:Isaac Watts, 1709 (Hymn 30, Book 2)         66. 86. (S. M.)
T:New Hope
T:Transcribed from The Kentucky Harmony, 1825
%%score [ 1 2 3 4 ]
L:1/8
Q:1/4=110
M:4/4
K:F
V:1 treble nm="Tr." snm="Tr."
V:2 treble nm="C." snm="C."
V:3 treble-8 nm="T." snm="T."
V:4 bass nm="B." snm="B."
V:1
"^3.   Let  those  re–fuse  to  sing   That  ne–ver  knew  our God;    But  favorites  of  the  hea–venly  King   May speak  their  joys  a – broad.""^1. Come, ye that love the Lord, And let  your  joys  be  known;   Join  in  a  song  with  sweet  ac – cord,  And  thus  surround  the  throne.""^2.  The  sorrows  of  the  mind  Be  banished  from  the  place;     Re–li–gion  ne – ver  was  de – signed   To    make  our  plea–sures  less." c4 | %1
 c2 d2 AG GA | c4 f4 | d2 fd dc A2 | c8 |: c4 f2 f2 | ec de dc A2 | G4 c4 | AG F2 G2 G2 | c8 :| %10
V:2
"^4.   The God that rules on high, And thunders when he please,  That rides up–on    the   stor – my  sky,  And  ma – na – ges    the      seas;""^5.  This awe–ful  God  is  ours,  Our Fa–ther  and   our  love;    He shall send down his heav'nly powers   To    car – ry     us      a   –  bove.""^6. There we  shall  see  his face,  And ne –ver,    ne –ver    sin;     There, from the  ri–vers  of   his  grace,  Drink end–less  plea–sures  in." F4 | %1
 A2 B2 A2 G2 | F4 F4 | F2 F2 G2 A2 | G8 |: A4 F2 F2 | F2 F2 G2 A2 | G4 A4 | F2 F2 E2 E2 | F8 :| %10
V:3
"^7.   Yes,  and be–fore  we  rise   To  that im – mor – tal    state,   The thoughts of such a –ma –zing  bliss  Should con–stant joys cre – ate.""^8.   The men of grace have found Glory  be  –  gun   be – low;      Ce –les –tial  fruits on earth–ly ground  From faith and hope may grow.""^9.   The hill  of  Zi – on  yields   A   thousand  sacred  sweets,      Before   we  reach  the  heav'nly  fields,  Or   walk   the   gol –den streets." F4 | %1
 A2 G2 Ac cA | F4 c4 | f2 (3cdf dc A2 | G8 |: c4 d2 d2 | c2 de f2 d2 | c4 F4 | A2 A2 GF GA | F8 :| %10
V:4
"^10. Then let our songs abound,  And eve–ry   tear   be    dry;   We're marching through Immanuel's ground  To  fai–rer worlds  on  high." F,4 | %1
 F,2 B,2 A,2 C2 | F,4 F,4 | B,2 A,2 G,2 F,2 | C,8 |: F,4 F,2 F,G, | A,2 B,A, G,2 A,,B,, | C,4 F,4 | %8
 F,G, A,B, C2 C,2 | F,8 :| %10

